!!!OTL: ET FRAD DE KENENK GENZT DEM REIN
!!!ARE: Europa, Mitteleuropa, Deutschland; Rumaenien, Siebenbuergen
!!!SCT: E0042H
!!!YEM: Copyright 1995, estate of Helmut Schaffrath.
**kern
*ICvox
*Ivox
*M4/4
*k[f#]
*G:
{8b
8b
8b
=1
4.e
8B
4e
4f#
=2
2e
8r}
{8b
8b
8b
=3
4a
4a
4b
4a
=4
2g
8r}
{8dd
8dd
8dd
=5
4.g
8g
4cc
4b
=6
2a
8r}
{8e
8d
8d
=7
8b
8d
4g
4.b
8a
=8
2g
8r}
{8dd
8dd
8dd
=9
4.g
8g
4cc
4b
=10
2a
8r}
{8e
8d
8d
=11
8B
8d
4g
4.b
8a
=12
2g
8r}
==
!!!AGN: erzaehlendes Volks - Lied, Ritter -, Raeuber - Sage, Ballade ?
!!!ONB: ESAC (Essen Associative Code) Database: ERK1
!!!AMT: simple quadruple
!!!AIN: vox
!!!EED: Helmut Schaffrath
!!!EEV: 1.0
*-
